X:7
T:Iohn of the Green ye Chesheire way
T:John of the Green the Cheshire Way
M:3/2
L:1/4
Q:1/2=100
S:D.Wright, Extraordinary Collection, London 1713
Z:Pete Stewart, 2004 <www.hornpipemusic.co.uk>
K:D
"6/4 in book"C>E D/E/F/D/E2 | e/f/eE>AF E/D/ | C>E D/E/F/D/ E2 | d/c/dDAFE/D/ ||
d>f e/d/c/B/ B/4c/4d/4B/4 | d/c/dE>GFE/D/ |\
d>f e/c/B/A/ G/4A/4B/4c/4 | d/c/dD>AFE/D/ |\
L:1/8
GEG2FDF2ECE2 | efe2E3AF2ED | GEG2FDF2ECE2 | dcd2D3AF2ED ||\
afd gec fdB ecA | efe2E3AF2ED |\
afd gec dcB Edc | dcd2D3AF2ED |]

